X:1
T:The Merry Ploughboy
M:C|
L:1/8
Q:80
C:Arr. by Kent Hiestand
S:March 2/4
K:HP
{g}c/4{A}c/4|:
e{A}e{g}fc|
e{gBd}B-B{g}B/2c/2|  !
{Gdc}d{c}deB|
{gcd}c2-c{Gdc}d/2c/2|
{g}Beg{a}g/2{f}g/2|  !
feBe/2{A}e/2|
{g}eB{Gdc}dc|
{GBG}A2{GAG}A{g}c/2d/2:|  !
{gef}e3/2{A}e/2{g}f/2{e}f/2c/2d/2|
{g}e{g}B/2{G}B/2{g}B{d}B/2c/2|
{Gdc}d{c}deB|  !
{gcd}c2-c{Gdc}d/2c/2|
{g}Beg{a}g/2{f}g/2|
feBe/2{A}e/2|  !
{g}eB{Gdc}dc|
{GBG}A2{GAG}A|]

